exported-svg/minimize-2.svg

<svg height="24" viewBox="0 0 24 24" width="24" xmlns="http://www.w3.org/2000/svg"><path d="m15.7071068 10h4.7928932c.2761424 0 .5.2238576.5.5s-.2238576.5-.5.5h-6c-.2761424 0-.5-.2238576-.5-.5v-6c0-.27614237.2238576-.5.5-.5s.5.22385763.5.5v4.79289322l6.1464466-6.14644661c.1952622-.19526215.5118446-.19526215.7071068 0 .1952621.19526215.1952621.51184463 0 .70710678zm-6.41421358 5h-4.79289322c-.27614237 0-.5-.2238576-.5-.5s.22385763-.5.5-.5h6c.2761424 0 .5.2238576.5.5v6c0 .2761424-.2238576.5-.5.5s-.5-.2238576-.5-.5v-4.7928932l-6.14644661 6.1464466c-.19526215.1952621-.51184463.1952621-.70710678 0-.19526215-.1952622-.19526215-.5118446 0-.7071068z"/></svg>

<?xml version="1.0" encoding="UTF-8"?>
<svg width="24px" height="24px" viewBox="0 0 24 24" version="1.1" xmlns="http://www.w3.org/2000/svg" xmlns:xlink="http://www.w3.org/1999/xlink">
    <!-- Generator: Sketch 55.2 (78181) - https://sketchapp.com -->
    <title>minimize-2</title>
    <desc>Created with Sketch.</desc>
    <g id="minimize-2" stroke="none" stroke-width="1" fill="none" fill-rule="evenodd">
        <path d="M15.7071068,10 L20.5,10 C20.7761424,10 21,10.2238576 21,10.5 C21,10.7761424 20.7761424,11 20.5,11 L14.5,11 C14.2238576,11 14,10.7761424 14,10.5 L14,4.5 C14,4.22385763 14.2238576,4 14.5,4 C14.7761424,4 15,4.22385763 15,4.5 L15,9.29289322 L21.1464466,3.14644661 C21.3417088,2.95118446 21.6582912,2.95118446 21.8535534,3.14644661 C22.0488155,3.34170876 22.0488155,3.65829124 21.8535534,3.85355339 L15.7071068,10 Z" id="Combined-Shape" fill="#000000" fill-rule="nonzero"></path>
        <path d="M9.29289322,15 L4.5,15 C4.22385763,15 4,14.7761424 4,14.5 C4,14.2238576 4.22385763,14 4.5,14 L10.5,14 C10.7761424,14 11,14.2238576 11,14.5 L11,20.5 C11,20.7761424 10.7761424,21 10.5,21 C10.2238576,21 10,20.7761424 10,20.5 L10,15.7071068 L3.85355339,21.8535534 C3.65829124,22.0488155 3.34170876,22.0488155 3.14644661,21.8535534 C2.95118446,21.6582912 2.95118446,21.3417088 3.14644661,21.1464466 L9.29289322,15 Z" id="Combined-Shape" fill="#000000" fill-rule="nonzero"></path>
    </g>
</svg>
